public/img/ico-usuarios.svg

<svg width="43" height="60" viewBox="0 0 43 60" fill="none" xmlns="http://www.w3.org/2000/svg">
<path d="M37.3657 0.971922V1.84298L37.103 2.27387L37.0081 2.42949C36.9726 2.42643 36.9375 2.42474 36.903 2.42474C36.8685 2.42474 36.8333 2.42643 36.7978 2.42949L36.703 2.27387L36.4403 1.84298V0.971922C36.4403 0.706665 36.6518 0.5 36.903 0.5C37.1541 0.5 37.3657 0.706665 37.3657 0.971922ZM38.8803 2.63531L38.7532 2.57343H39.9836C41.3662 2.57343 42.5 3.7112 42.5 5.11879V56.9546C42.5 58.3622 41.3662 59.5 39.9836 59.5H3.01642C1.63378 59.5 0.5 58.3622 0.5 56.9546V5.11879C0.5 3.7112 1.63378 2.57343 3.01642 2.57343H4.01012C3.91019 2.70578 3.83851 2.8757 3.83851 3.08489C3.83851 3.25051 3.8892 3.44636 4.05084 3.59744C4.19999 3.73684 4.37738 3.7748 4.49747 3.78468C4.72299 3.80325 4.97457 3.73892 5.15634 3.68673C5.25661 3.65794 5.39158 3.61483 5.51478 3.57548C5.60169 3.54772 5.68274 3.52183 5.74163 3.50416C5.93541 3.446 6.04659 3.42474 6.09701 3.42474C6.14744 3.42474 6.25862 3.446 6.4524 3.50416C6.51129 3.52183 6.59234 3.54772 6.67925 3.57548C6.80245 3.61483 6.93742 3.65794 7.03769 3.68673C7.21946 3.73892 7.47104 3.80325 7.69656 3.78468C7.81665 3.7748 7.99404 3.73684 8.14319 3.59744C8.30483 3.44636 8.35552 3.25051 8.35552 3.08489V2.77217L8.07433 2.63531L7.94719 2.57343H10.408L10.2809 2.63531L9.9997 2.77217V3.08489C9.9997 3.25051 10.0504 3.44636 10.212 3.59744C10.3612 3.73684 10.5386 3.7748 10.6587 3.78468C10.8842 3.80325 11.1358 3.73892 11.3175 3.68673C11.4178 3.65794 11.5528 3.61483 11.676 3.57548C11.7629 3.54772 11.8439 3.52183 11.9028 3.50416C12.0966 3.446 12.2078 3.42474 12.2582 3.42474C12.3086 3.42474 12.4198 3.446 12.6136 3.50416C12.6725 3.52183 12.7535 3.54772 12.8404 3.57548C12.9636 3.61483 13.0986 3.65794 13.1989 3.68673C13.3807 3.73892 13.6322 3.80325 13.8578 3.78468C13.9778 3.7748 14.1552 3.73684 14.3044 3.59744C14.466 3.44636 14.5167 3.25051 14.5167 3.08489V2.77217L14.2355 2.63531L14.1084 2.57343H16.5692L16.4421 2.63531L16.1609 2.77217V3.08489C16.1609 3.25051 16.2116 3.44636 16.3732 3.59744C16.5224 3.73684 16.6998 3.7748 16.8199 3.78468C17.0454 3.80325 17.297 3.73892 17.4787 3.68673C17.579 3.65794 17.714 3.61483 17.8372 3.57548C17.9241 3.54772 18.0051 3.52183 18.064 3.50416C18.2578 3.446 18.369 3.42474 18.4194 3.42474C18.4698 3.42474 18.581 3.446 18.7748 3.50416C18.8337 3.52183 18.9147 3.54772 19.0016 3.57548C19.1248 3.61483 19.2598 3.65794 19.3601 3.68673C19.5418 3.73892 19.7934 3.80325 20.0189 3.78468C20.139 3.7748 20.3164 3.73684 20.4656 3.59744C20.6272 3.44636 20.6779 3.25051 20.6779 3.08489V2.77217L20.3967 2.63531L20.2696 2.57343H22.7304L22.6033 2.63531L22.3221 2.77217V3.08489C22.3221 3.25051 22.3728 3.44636 22.5344 3.59744C22.6836 3.73684 22.861 3.7748 22.981 3.78468C23.2066 3.80325 23.4581 3.73892 23.6399 3.68673C23.7402 3.65794 23.8752 3.61483 23.9984 3.57548C24.0853 3.54772 24.1663 3.52183 24.2252 3.50416C24.419 3.446 24.5302 3.42474 24.5806 3.42474C24.631 3.42474 24.7422 3.446 24.936 3.50416C24.9949 3.52183 25.0759 3.54772 25.1628 3.57547C25.286 3.61482 25.421 3.65793 25.5213 3.68673C25.703 3.73892 25.9546 3.80325 26.1801 3.78468C26.3002 3.7748 26.4776 3.73684 26.6268 3.59744C26.7884 3.44636 26.8391 3.25051 26.8391 3.08489V2.77217L26.5579 2.63531L26.4308 2.57343H28.8916L28.7645 2.63531L28.4833 2.77217V3.08489C28.4833 3.25051 28.534 3.44636 28.6956 3.59744C28.8448 3.73684 29.0222 3.7748 29.1422 3.78468C29.3678 3.80325 29.6193 3.73892 29.8011 3.68673C29.9014 3.65794 30.0364 3.61483 30.1596 3.57548C30.2465 3.54772 30.3275 3.52183 30.3864 3.50416C30.5802 3.446 30.6914 3.42474 30.7418 3.42474C30.7922 3.42474 30.9034 3.446 31.0972 3.50416C31.1561 3.52183 31.2371 3.54772 31.324 3.57548C31.4472 3.61483 31.5822 3.65794 31.6825 3.68673C31.8642 3.73892 32.1158 3.80325 32.3413 3.78468C32.4614 3.7748 32.6388 3.73684 32.788 3.59744C32.9496 3.44636 33.0003 3.25051 33.0003 3.08489V2.77217L32.7191 2.63531L32.592 2.57343H35.0528L34.9257 2.63531L34.6445 2.77217V3.08489C34.6445 3.25051 34.6952 3.44636 34.8568 3.59744C35.006 3.73684 35.1833 3.7748 35.3034 3.78468C35.529 3.80325 35.7805 3.73892 35.9623 3.68673C36.0626 3.65793 36.1976 3.61482 36.3208 3.57547C36.4077 3.54772 36.4887 3.52183 36.5476 3.50416C36.7414 3.446 36.8526 3.42474 36.903 3.42474C36.9534 3.42474 37.0646 3.446 37.2584 3.50416C37.3173 3.52183 37.3983 3.54772 37.4852 3.57548C37.6084 3.61483 37.7434 3.65794 37.8437 3.68673C38.0254 3.73892 38.277 3.80325 38.5025 3.78468C38.6226 3.7748 38.8 3.73684 38.9492 3.59744C39.1108 3.44636 39.1615 3.25051 39.1615 3.08489V2.77217L38.8803 2.63531ZM30.9418 2.27387L30.8469 2.42949C30.8114 2.42643 30.7763 2.42474 30.7418 2.42474C30.7073 2.42474 30.6721 2.42643 30.6367 2.42949L30.5418 2.27387L30.2791 1.84299V0.971922C30.2791 0.706662 30.4906 0.5 30.7418 0.5C30.9929 0.5 31.2045 0.706663 31.2045 0.971922V1.84299L30.9418 2.27387ZM24.1179 1.84299V0.971922C24.1179 0.706663 24.3294 0.5 24.5806 0.5C24.8317 0.5 25.0433 0.706665 25.0433 0.971922V1.84299L24.7806 2.27387L24.6857 2.42949C24.6502 2.42643 24.6151 2.42474 24.5806 2.42474C24.5461 2.42474 24.511 2.42643 24.4755 2.42949L24.3806 2.27387L24.1179 1.84299ZM17.9567 1.84299V0.971922C17.9567 0.706663 18.1682 0.5 18.4194 0.5C18.6706 0.5 18.8821 0.706663 18.8821 0.971922V1.84299L18.6194 2.27387L18.5245 2.42949C18.489 2.42643 18.4539 2.42474 18.4194 2.42474C18.3849 2.42474 18.3498 2.42643 18.3143 2.42949L18.2194 2.27387L17.9567 1.84299ZM11.7955 1.84299V0.971922C11.7955 0.706663 12.0071 0.5 12.2582 0.5C12.5094 0.5 12.7209 0.706663 12.7209 0.971922V1.84299L12.4582 2.27387L12.3633 2.42949C12.3279 2.42643 12.2927 2.42474 12.2582 2.42474C12.2237 2.42474 12.1886 2.42643 12.1531 2.42949L12.0582 2.27387L11.7955 1.84299ZM6.20215 2.42949C6.16666 2.42643 6.1315 2.42474 6.09701 2.42474C6.06253 2.42474 6.02737 2.42643 5.99188 2.42949L5.89701 2.27387L5.63433 1.84299V0.971922C5.63433 0.706663 5.84586 0.5 6.09701 0.5C6.34817 0.5 6.5597 0.706663 6.5597 0.971922V1.84299L6.29702 2.27387L6.20215 2.42949Z" stroke="#FF9944"/>
<path d="M14.2586 27.7586C14.2586 23.7481 17.5067 20.5 21.5172 20.5C25.5277 20.5 28.7759 23.7481 28.7759 27.7586C28.7759 31.7691 25.5277 35.0172 21.5172 35.0172C17.5067 35.0172 14.2586 31.7691 14.2586 27.7586ZM6.5 44.181C6.5 43.0748 7.05018 42.0688 8.0354 41.1595C9.02402 40.2471 10.417 39.4662 12.0025 38.8311C15.1742 37.5605 18.9903 36.9224 21.5172 36.9224C24.0442 36.9224 27.8603 37.5605 31.032 38.8311C32.6175 39.4662 34.0105 40.2471 34.9991 41.1595C35.9843 42.0688 36.5345 43.0748 36.5345 44.181V49.5H6.5V44.181Z" stroke="#FF9944"/>
</svg>

<svg width="43" height="60" fill="none" xmlns="http://www.w3.org/2000/svg"><path d="M37.366.972v.871l-.263.43-.095.156a1.226 1.226 0 00-.21 0l-.095-.155-.263-.431V.972c0-.265.212-.472.463-.472s.463.207.463.472zm1.514 1.663l-.127-.062h1.23c1.383 0 2.517 1.138 2.517 2.546v51.836c0 1.407-1.134 2.545-2.516 2.545H3.016C1.634 59.5.5 58.362.5 56.955V5.119c0-1.408 1.134-2.546 2.516-2.546h.994a.834.834 0 00-.171.512c0 .166.05.361.212.512.149.14.326.178.446.188.226.018.478-.046.66-.098.1-.03.235-.072.358-.112.087-.027.168-.053.227-.07.193-.059.305-.08.355-.08.05 0 .162.021.355.08.06.017.14.043.227.07.123.04.258.083.359.112.181.052.433.116.659.098a.733.733 0 00.446-.188.689.689 0 00.213-.512v-.313l-.282-.137-.127-.062h2.461l-.127.062-.281.137v.313c0 .166.05.361.212.512.15.14.327.178.447.188.225.018.477-.046.659-.098.1-.03.235-.072.358-.112.087-.027.168-.053.227-.07.194-.059.305-.08.355-.08.05 0 .162.021.356.08l.226.07c.124.04.259.083.359.112.182.052.433.116.659.098a.733.733 0 00.446-.188.689.689 0 00.213-.512v-.313l-.281-.137-.128-.062h2.461l-.127.062-.281.137v.313c0 .166.05.361.212.512.15.14.327.178.447.188.225.018.477-.046.659-.098.1-.03.235-.072.358-.112.087-.027.168-.053.227-.07.194-.059.305-.08.355-.08.05 0 .162.021.356.08.059.017.14.043.227.07.123.04.258.083.358.112.182.052.433.116.659.098a.733.733 0 00.447-.188.689.689 0 00.212-.512v-.313l-.281-.137-.127-.062h2.46l-.127.062-.28.137v.313c0 .166.05.361.211.512.15.14.327.178.447.188.226.018.477-.046.659-.098.1-.03.235-.072.358-.112.087-.027.168-.053.227-.07.194-.059.305-.08.356-.08.05 0 .161.021.355.08.059.017.14.043.227.07.123.04.258.083.358.112.182.052.434.116.66.098a.733.733 0 00.446-.188.689.689 0 00.212-.512v-.313l-.281-.137-.127-.062h2.46l-.126.062-.282.137v.313c0 .166.051.361.213.512.149.14.326.178.446.188.226.018.477-.046.66-.098.1-.03.234-.072.358-.112l.226-.07c.194-.059.305-.08.356-.08.05 0 .161.021.355.08.06.017.14.043.227.07.123.04.258.083.358.112.182.052.434.116.66.098a.733.733 0 00.446-.188.689.689 0 00.212-.512v-.313l-.28-.137-.128-.062h2.46l-.126.062-.282.137v.313c0 .166.051.361.213.512.149.14.326.178.446.188.226.018.478-.046.66-.098.1-.03.235-.072.358-.112.087-.027.168-.053.227-.07.193-.059.305-.08.355-.08.05 0 .162.021.355.08.06.017.14.043.227.07.123.04.258.083.359.112.181.052.433.116.658.098a.733.733 0 00.447-.188.689.689 0 00.212-.512v-.313l-.28-.137zm-7.938-.361l-.095.155a1.226 1.226 0 00-.21 0l-.095-.155-.263-.431V.972c0-.265.212-.472.463-.472.25 0 .462.207.462.472v.871l-.262.43zm-6.824-.431V.972c0-.265.211-.472.463-.472.25 0 .462.207.462.472v.871l-.262.43-.095.156a1.226 1.226 0 00-.21 0l-.095-.155-.263-.431zm-6.161 0V.972c0-.265.211-.472.462-.472.252 0 .463.207.463.472v.871l-.263.43-.095.156a1.226 1.226 0 00-.21 0l-.095-.155-.262-.431zm-6.162 0V.972c0-.265.212-.472.463-.472s.463.207.463.472v.871l-.263.43-.095.156a1.224 1.224 0 00-.21 0l-.095-.155-.262-.431zm-5.593.586a1.226 1.226 0 00-.21 0l-.095-.155-.263-.431V.972c0-.265.212-.472.463-.472s.463.207.463.472v.871l-.263.43-.095.156z" stroke="#F94"/><path d="M14.259 27.759a7.256 7.256 0 017.258-7.259 7.257 7.257 0 017.259 7.259 7.257 7.257 0 01-7.259 7.258 7.256 7.256 0 01-7.258-7.258zM6.5 44.18c0-1.106.55-2.112 1.535-3.021.989-.913 2.382-1.694 3.967-2.329 3.172-1.27 6.988-1.909 9.515-1.909s6.343.639 9.515 1.91c1.585.634 2.979 1.415 3.967 2.328.985.909 1.535 1.915 1.535 3.021V49.5H6.5v-5.319z" stroke="#F94"/></svg>
